X: 2
T:Jig of Slurs, The
M:6/8
L:1/8
R:jig
N:also known as the "Jug of Slugs" ;-
K:D
Add (dcd)|Bdd Add|Bdd Add|Bee (edB)|Add (dcd)|Bdd Add|Bdd cde|1fdc d3  :
|2
 fdc d2 B|
|:Aff (fef)|aff (fed)|Bee (ede)|fef (edB)|Aff (fef)|aff (fed)|Bdd cde|fd
c d2 :|
K:G
|:B/A/|Ggg (gfg)|age (gdB)|Ggg (gfg)|age (g2 B)|Ggg (gfg)|age (gdB)|Bee
e
gg|1fdd e2 :|2fdd e3  |
|:GBB Bdd|dee (edB)|GBB Bdd|dee egg|GBB Bdd|dee (edB)|Bee egg|fdd e3  :|
